images/postman-logo.svg

<svg xmlns="http://www.w3.org/2000/svg" xmlns:xlink="http://www.w3.org/1999/xlink" width="80" zoomAndPan="magnify" viewBox="0 0 60 60" height="80" preserveAspectRatio="xMidYMid meet" version="1.0"><defs><g/><clipPath id="ecb4c41d4d"><path d="M 5.398438 0 L 54.898438 0 L 54.898438 49.5 L 5.398438 49.5 Z M 5.398438 0 " clip-rule="nonzero"/></clipPath></defs><g clip-path="url(#ecb4c41d4d)"><path fill="#ff6c37" d="M 54.699219 27.894531 C 56.429688 14.332031 46.851562 1.933594 33.316406 0.203125 C 19.78125 -1.53125 7.335938 8.046875 5.601562 21.582031 C 3.871094 35.117188 13.445312 47.539062 26.984375 49.296875 C 40.542969 51.03125 52.941406 41.453125 54.699219 27.894531 Z M 54.699219 27.894531 " fill-opacity="1" fill-rule="nonzero"/></g><path fill="#ffffff" d="M 39.082031 15.890625 L 28.640625 26.332031 L 25.695312 23.390625 C 35.964844 13.121094 36.980469 14.011719 39.082031 15.890625 Z M 39.082031 15.890625 " fill-opacity="1" fill-rule="nonzero"/><path fill="#ff6c37" d="M 28.640625 26.582031 C 28.566406 26.582031 28.515625 26.554688 28.46875 26.507812 L 25.496094 23.5625 C 25.398438 23.464844 25.398438 23.316406 25.496094 23.214844 C 35.941406 12.773438 37.027344 13.761719 39.230469 15.742188 C 39.28125 15.792969 39.304688 15.839844 39.304688 15.914062 C 39.304688 15.988281 39.28125 16.039062 39.230469 16.089844 L 28.789062 26.507812 C 28.765625 26.554688 28.691406 26.582031 28.640625 26.582031 Z M 26.042969 23.390625 L 28.640625 25.988281 L 38.710938 15.914062 C 36.878906 14.28125 35.644531 13.789062 26.042969 23.390625 Z M 26.042969 23.390625 " fill-opacity="1" fill-rule="nonzero"/><path fill="#ffffff" d="M 31.632812 29.328125 L 28.789062 26.480469 L 39.230469 16.039062 C 42.027344 18.859375 37.847656 23.4375 31.632812 29.328125 Z M 31.632812 29.328125 " fill-opacity="1" fill-rule="nonzero"/><path fill="#ff6c37" d="M 31.632812 29.574219 C 31.558594 29.574219 31.511719 29.550781 31.460938 29.5 L 28.617188 26.65625 C 28.566406 26.605469 28.566406 26.554688 28.566406 26.480469 C 28.566406 26.40625 28.589844 26.359375 28.640625 26.308594 L 39.082031 15.867188 C 39.183594 15.765625 39.332031 15.765625 39.429688 15.867188 C 40.074219 16.460938 40.417969 17.300781 40.394531 18.167969 C 40.34375 20.914062 37.226562 24.402344 31.832031 29.5 C 31.757812 29.550781 31.683594 29.574219 31.632812 29.574219 Z M 29.136719 26.480469 C 30.71875 28.089844 31.386719 28.734375 31.632812 28.980469 C 35.792969 25.023438 39.824219 20.964844 39.851562 18.167969 C 39.875 17.523438 39.628906 16.882812 39.207031 16.386719 Z M 29.136719 26.480469 " fill-opacity="1" fill-rule="nonzero"/><path fill="#ffffff" d="M 25.746094 23.464844 L 27.847656 25.566406 C 27.898438 25.617188 27.898438 25.664062 27.847656 25.714844 C 27.824219 25.738281 27.824219 25.738281 27.800781 25.738281 L 23.445312 26.679688 C 23.222656 26.703125 23.023438 26.554688 22.972656 26.332031 C 22.949219 26.210938 23 26.085938 23.074219 26.011719 L 25.597656 23.488281 C 25.644531 23.4375 25.71875 23.414062 25.746094 23.464844 Z M 25.746094 23.464844 " fill-opacity="1" fill-rule="nonzero"/><path fill="#ff6c37" d="M 23.371094 26.925781 C 23 26.925781 22.726562 26.628906 22.726562 26.257812 C 22.726562 26.085938 22.800781 25.914062 22.925781 25.789062 L 25.449219 23.265625 C 25.597656 23.140625 25.792969 23.140625 25.941406 23.265625 L 28.046875 25.367188 C 28.195312 25.492188 28.195312 25.714844 28.046875 25.863281 C 27.996094 25.914062 27.949219 25.9375 27.875 25.960938 L 23.519531 26.902344 C 23.46875 26.902344 23.417969 26.925781 23.371094 26.925781 Z M 25.671875 23.734375 L 23.246094 26.160156 C 23.195312 26.210938 23.171875 26.285156 23.222656 26.359375 C 23.246094 26.433594 23.320312 26.457031 23.394531 26.433594 L 27.476562 25.542969 Z M 25.671875 23.734375 " fill-opacity="1" fill-rule="nonzero"/><path fill="#ffffff" d="M 44.601562 10.101562 C 43.019531 8.566406 40.46875 8.617188 38.933594 10.222656 C 37.402344 11.832031 37.449219 14.355469 39.058594 15.890625 C 40.371094 17.152344 42.347656 17.375 43.910156 16.433594 L 41.085938 13.613281 Z M 44.601562 10.101562 " fill-opacity="1" fill-rule="nonzero"/><path fill="#ff6c37" d="M 41.828125 17.253906 C 39.480469 17.253906 37.574219 15.347656 37.574219 12.996094 C 37.574219 10.644531 39.480469 8.738281 41.828125 8.738281 C 42.917969 8.738281 43.984375 9.160156 44.773438 9.925781 C 44.824219 9.976562 44.847656 10.027344 44.847656 10.101562 C 44.847656 10.175781 44.824219 10.222656 44.773438 10.273438 L 41.433594 13.613281 L 44.058594 16.238281 C 44.15625 16.335938 44.15625 16.484375 44.058594 16.585938 C 44.03125 16.609375 44.03125 16.609375 44.007812 16.632812 C 43.363281 17.03125 42.597656 17.253906 41.828125 17.253906 Z M 41.828125 9.257812 C 39.75 9.257812 38.070312 10.941406 38.09375 13.019531 C 38.09375 15.097656 39.777344 16.78125 41.855469 16.757812 C 42.421875 16.757812 42.992188 16.632812 43.511719 16.359375 L 40.914062 13.789062 C 40.863281 13.738281 40.839844 13.6875 40.839844 13.613281 C 40.839844 13.539062 40.863281 13.492188 40.914062 13.441406 L 44.230469 10.125 C 43.5625 9.554688 42.71875 9.257812 41.828125 9.257812 Z M 41.828125 9.257812 " fill-opacity="1" fill-rule="nonzero"/><path fill="#ffffff" d="M 44.675781 10.175781 L 44.625 10.125 L 41.085938 13.613281 L 43.882812 16.410156 C 44.15625 16.238281 44.429688 16.039062 44.652344 15.816406 C 46.234375 14.257812 46.234375 11.734375 44.675781 10.175781 Z M 44.675781 10.175781 " fill-opacity="1" fill-rule="nonzero"/><path fill="#ff6c37" d="M 43.910156 16.683594 C 43.835938 16.683594 43.785156 16.660156 43.734375 16.609375 L 40.914062 13.789062 C 40.863281 13.738281 40.839844 13.6875 40.839844 13.613281 C 40.839844 13.539062 40.863281 13.492188 40.914062 13.441406 L 44.429688 9.925781 C 44.527344 9.828125 44.675781 9.828125 44.773438 9.925781 L 44.847656 9.976562 C 46.507812 11.636719 46.507812 14.308594 44.875 15.988281 C 44.625 16.238281 44.355469 16.460938 44.058594 16.632812 C 43.984375 16.660156 43.933594 16.683594 43.910156 16.683594 Z M 41.433594 13.613281 L 43.933594 16.113281 C 44.132812 15.988281 44.328125 15.816406 44.476562 15.667969 C 45.886719 14.257812 45.960938 11.957031 44.601562 10.472656 Z M 41.433594 13.613281 " fill-opacity="1" fill-rule="nonzero"/><path fill="#ffffff" d="M 39.503906 16.335938 C 38.910156 15.742188 37.945312 15.742188 37.351562 16.335938 L 28.023438 25.664062 L 29.582031 27.222656 L 39.453125 18.5625 C 40.097656 18.019531 40.148438 17.054688 39.601562 16.410156 C 39.554688 16.386719 39.527344 16.359375 39.503906 16.335938 Z M 39.503906 16.335938 " fill-opacity="1" fill-rule="nonzero"/><path fill="#ff6c37" d="M 29.554688 27.472656 C 29.480469 27.472656 29.433594 27.449219 29.382812 27.398438 L 27.824219 25.839844 C 27.726562 25.738281 27.726562 25.589844 27.824219 25.492188 L 37.152344 16.164062 C 37.847656 15.46875 38.960938 15.46875 39.652344 16.164062 C 40.34375 16.855469 40.34375 17.96875 39.652344 18.664062 C 39.628906 18.6875 39.601562 18.710938 39.578125 18.738281 L 29.703125 27.398438 C 29.679688 27.449219 29.628906 27.472656 29.554688 27.472656 Z M 28.367188 25.664062 L 29.582031 26.878906 L 39.28125 18.367188 C 39.824219 17.921875 39.875 17.105469 39.429688 16.558594 C 38.984375 16.015625 38.167969 15.964844 37.625 16.410156 C 37.597656 16.433594 37.574219 16.460938 37.523438 16.484375 Z M 28.367188 25.664062 " fill-opacity="1" fill-rule="nonzero"/><path fill="#ffffff" d="M 20.871094 36.28125 C 20.769531 36.332031 20.722656 36.429688 20.746094 36.527344 L 21.167969 38.3125 C 21.265625 38.558594 21.117188 38.855469 20.84375 38.929688 C 20.648438 39.003906 20.425781 38.929688 20.300781 38.78125 L 17.578125 36.082031 L 26.460938 27.199219 L 29.53125 27.25 L 31.609375 29.328125 C 31.113281 29.75 28.121094 32.644531 20.871094 36.28125 Z M 20.871094 36.28125 " fill-opacity="1" fill-rule="nonzero"/><path fill="#ff6c37" d="M 20.671875 39.175781 C 20.472656 39.175781 20.277344 39.101562 20.152344 38.953125 L 17.457031 36.257812 C 17.40625 36.207031 17.382812 36.15625 17.382812 36.082031 C 17.382812 36.007812 17.40625 35.960938 17.457031 35.910156 L 26.339844 27.027344 C 26.386719 26.976562 26.460938 26.953125 26.511719 26.953125 L 29.582031 27 C 29.65625 27 29.703125 27.027344 29.753906 27.074219 L 31.832031 29.15625 C 31.882812 29.203125 31.90625 29.277344 31.90625 29.351562 C 31.90625 29.425781 31.882812 29.476562 31.808594 29.527344 L 31.632812 29.675781 C 29.011719 31.976562 25.449219 34.277344 21.019531 36.480469 L 21.441406 38.238281 C 21.515625 38.558594 21.367188 38.90625 21.066406 39.078125 C 20.917969 39.152344 20.796875 39.175781 20.671875 39.175781 Z M 17.949219 36.082031 L 20.5 38.609375 C 20.574219 38.730469 20.722656 38.78125 20.84375 38.707031 C 20.96875 38.632812 21.019531 38.484375 20.945312 38.359375 L 20.523438 36.578125 C 20.472656 36.355469 20.574219 36.15625 20.769531 36.058594 C 25.152344 33.855469 28.691406 31.578125 31.289062 29.328125 L 29.457031 27.496094 L 26.613281 27.449219 Z M 17.949219 36.082031 " fill-opacity="1" fill-rule="nonzero"/><path fill="#ffffff" d="M 15.476562 38.210938 L 17.605469 36.082031 L 20.769531 39.25 L 15.722656 38.90625 C 15.5 38.878906 15.351562 38.683594 15.375 38.460938 C 15.375 38.359375 15.402344 38.261719 15.476562 38.210938 Z M 15.476562 38.210938 " fill-opacity="1" fill-rule="nonzero"/><path fill="#ff6c37" d="M 20.769531 39.472656 L 15.699219 39.128906 C 15.328125 39.101562 15.078125 38.78125 15.105469 38.410156 C 15.128906 38.261719 15.179688 38.113281 15.300781 38.011719 L 17.429688 35.886719 C 17.53125 35.785156 17.679688 35.785156 17.777344 35.886719 L 20.945312 39.054688 C 21.019531 39.128906 21.042969 39.226562 20.992188 39.324219 C 20.945312 39.425781 20.871094 39.472656 20.769531 39.472656 Z M 17.605469 36.429688 L 15.648438 38.386719 C 15.574219 38.433594 15.574219 38.558594 15.648438 38.609375 C 15.671875 38.632812 15.699219 38.65625 15.75 38.65625 L 20.128906 38.953125 Z M 17.605469 36.429688 " fill-opacity="1" fill-rule="nonzero"/><path fill="#ff6c37" d="M 25.597656 28.339844 C 25.449219 28.339844 25.347656 28.214844 25.347656 28.089844 C 25.347656 28.015625 25.375 27.96875 25.421875 27.917969 L 27.824219 25.515625 C 27.921875 25.417969 28.070312 25.417969 28.171875 25.515625 L 29.730469 27.074219 C 29.804688 27.148438 29.828125 27.222656 29.804688 27.324219 C 29.777344 27.398438 29.703125 27.472656 29.605469 27.496094 L 25.644531 28.339844 C 25.621094 28.339844 25.597656 28.339844 25.597656 28.339844 Z M 27.996094 26.035156 L 26.363281 27.671875 L 29.035156 27.101562 Z M 27.996094 26.035156 " fill-opacity="1" fill-rule="nonzero"/><path fill="#ffffff" d="M 29.53125 27.25 L 26.808594 27.84375 C 26.613281 27.894531 26.414062 27.769531 26.363281 27.570312 C 26.339844 27.449219 26.363281 27.324219 26.460938 27.222656 L 27.972656 25.714844 Z M 29.53125 27.25 " fill-opacity="1" fill-rule="nonzero"/><path fill="#ff6c37" d="M 26.761719 28.089844 C 26.414062 28.089844 26.140625 27.820312 26.140625 27.472656 C 26.140625 27.296875 26.214844 27.148438 26.3125 27.027344 L 27.824219 25.515625 C 27.921875 25.417969 28.070312 25.417969 28.171875 25.515625 L 29.730469 27.074219 C 29.804688 27.148438 29.828125 27.222656 29.804688 27.324219 C 29.777344 27.398438 29.703125 27.472656 29.605469 27.496094 L 26.882812 28.089844 C 26.835938 28.089844 26.785156 28.089844 26.761719 28.089844 Z M 27.996094 26.035156 L 26.660156 27.371094 C 26.613281 27.421875 26.613281 27.472656 26.636719 27.523438 C 26.660156 27.570312 26.710938 27.597656 26.785156 27.597656 L 29.0625 27.101562 Z M 27.996094 26.035156 " fill-opacity="1" fill-rule="nonzero"/><path fill="#ff6c37" d="M 44.699219 12.550781 C 44.652344 12.402344 44.476562 12.328125 44.328125 12.378906 C 44.179688 12.425781 44.105469 12.601562 44.15625 12.75 C 44.15625 12.773438 44.179688 12.796875 44.179688 12.824219 C 44.328125 13.121094 44.28125 13.492188 44.082031 13.761719 C 43.984375 13.886719 44.007812 14.058594 44.105469 14.160156 C 44.230469 14.257812 44.402344 14.234375 44.503906 14.109375 C 44.875 13.640625 44.949219 13.046875 44.699219 12.550781 Z M 44.699219 12.550781 " fill-opacity="1" fill-rule="nonzero"/><g fill="#000000" fill-opacity="1"><g transform="translate(14.041617, 58.933351)"><g><path d="M 4.214844 -1.488281 L 4.214844 -5.335938 L 0.207031 -5.335938 L 0.207031 0 L 1.542969 0 L 1.542969 -1.488281 Z M 2.878906 -2.703125 L 1.542969 -2.703125 L 1.542969 -4.113281 L 2.878906 -4.113281 Z M 2.878906 -2.703125 "/></g></g></g><g fill="#000000" fill-opacity="1"><g transform="translate(18.441665, 58.933351)"><g><path d="M 4.214844 0 L 4.214844 -5.335938 L 0.207031 -5.335938 L 0.207031 0 Z M 2.878906 -1.214844 L 1.542969 -1.214844 L 1.542969 -4.113281 L 2.878906 -4.113281 Z M 2.878906 -1.214844 "/></g></g></g><g fill="#000000" fill-opacity="1"><g transform="translate(22.86571, 58.933351)"><g><path d="M 4.214844 0 L 4.214844 -3.273438 L 1.542969 -3.273438 L 1.542969 -4.113281 L 4.214844 -4.113281 L 4.214844 -5.335938 L 0.207031 -5.335938 L 0.207031 -2.097656 L 2.878906 -2.097656 L 2.878906 -1.214844 L 0.207031 -1.214844 L 0.207031 0 Z M 4.214844 0 "/></g></g></g><g fill="#000000" fill-opacity="1"><g transform="translate(27.28176, 58.933351)"><g><path d="M 4.128906 -4.113281 L 4.128906 -5.335938 L 0.121094 -5.335938 L 0.121094 -4.113281 L 1.464844 -4.113281 L 1.464844 0 L 2.800781 0 L 2.800781 -4.113281 Z M 4.128906 -4.113281 "/></g></g></g><g fill="#000000" fill-opacity="1"><g transform="translate(31.529799, 58.933351)"><g><path d="M 5.457031 0 L 5.457031 -5.335938 L 0.121094 -5.335938 L 0.121094 -4.113281 L 0.382812 -4.113281 L 0.382812 0 L 1.457031 0 L 1.457031 -4.113281 L 2.121094 -4.113281 L 2.121094 0 L 3.457031 0 L 3.457031 -4.113281 L 4.121094 -4.113281 L 4.121094 0 Z M 5.457031 0 "/></g></g></g><g fill="#000000" fill-opacity="1"><g transform="translate(37.193858, 58.933351)"><g><path d="M 4.214844 0 L 4.214844 -5.335938 L 0.207031 -5.335938 L 0.207031 0 L 1.542969 0 L 1.542969 -1.488281 L 2.878906 -1.488281 L 2.878906 0 Z M 2.878906 -2.703125 L 1.542969 -2.703125 L 1.542969 -4.113281 L 2.878906 -4.113281 Z M 2.878906 -2.703125 "/></g></g></g><g fill="#000000" fill-opacity="1"><g transform="translate(41.617903, 58.933351)"><g><path d="M 4.128906 0 L 4.128906 -5.335938 L 0.121094 -5.335938 L 0.121094 -4.113281 L 0.382812 -4.113281 L 0.382812 0 L 1.457031 0 L 1.457031 -4.113281 L 2.792969 -4.113281 L 2.792969 0 Z M 4.128906 0 "/></g></g></g></svg>

<svg xmlns="http://www.w3.org/2000/svg" width="80" zoomAndPan="magnify" viewBox="0 0 60 60" height="80" preserveAspectRatio="xMidYMid meet" xmlns:v="https://vecta.io/nano"><style><![CDATA[.B{fill:#ff6c37}.C{fill:#fff}]]></style><defs><clipPath id="A"><path d="M5.398 0h49.5v49.5h-49.5zm0 0" clip-rule="nonzero"/></clipPath></defs><g clip-path="url(#A)" class="B"><path d="M54.699 27.895C56.43 14.332 46.852 1.934 33.316.203S7.336 8.047 5.602 21.582s7.844 25.957 21.383 27.715c13.559 1.734 25.957-7.844 27.715-21.402zm0 0"/></g><path d="M39.082 15.891L28.641 26.332l-2.945-2.941c10.27-10.27 11.285-9.379 13.387-7.5zm0 0" class="C"/><path d="M28.641 26.582c-.074 0-.125-.027-.172-.074l-2.973-2.945c-.098-.098-.098-.246 0-.348 10.445-10.441 11.531-9.453 13.734-7.473.051.051.074.098.074.172s-.023.125-.074.176L28.789 26.508c-.023.047-.098.074-.148.074zm-2.598-3.191l2.598 2.598 10.07-10.074c-1.832-1.633-3.066-2.125-12.668 7.477zm0 0" class="B"/><path d="M31.633 29.328l-2.844-2.848L39.23 16.039c2.797 2.82-1.383 7.398-7.598 13.289zm0 0" class="C"/><path d="M31.633 29.574c-.074 0-.121-.023-.172-.074l-2.844-2.844c-.051-.051-.051-.102-.051-.176s.023-.121.074-.172l10.441-10.441c.102-.102.25-.102.348 0a3.01 3.01 0 0 1 .965 2.301c-.051 2.746-3.168 6.234-8.562 11.332-.074.051-.148.074-.199.074zm-2.496-3.094l2.496 2.5c4.16-3.957 8.191-8.016 8.219-10.812.023-.645-.223-1.285-.645-1.781zm0 0" class="B"/><path d="M25.746 23.465l2.102 2.102a.09.09 0 0 1 0 .148c-.023.023-.023.023-.047.023l-4.355.941c-.223.023-.422-.125-.473-.348a.37.37 0 0 1 .102-.32l2.523-2.523c.047-.051.121-.074.148-.023zm0 0" class="C"/><path d="M23.371 26.926c-.371 0-.645-.297-.645-.668 0-.172.074-.344.199-.469l2.523-2.523a.37.37 0 0 1 .492 0l2.105 2.102c.148.125.148.348 0 .496-.051.051-.098.074-.172.098l-4.355.941c-.051 0-.102.023-.148.023zm2.301-3.191l-2.426 2.426c-.051.051-.074.125-.023.199.023.074.098.098.172.074l4.082-.891zm0 0" class="B"/><path d="M44.602 10.102c-1.582-1.535-4.133-1.484-5.668.121a4 4 0 0 0 .125 5.668 4 4 0 0 0 4.852.543l-2.824-2.82zm0 0" class="C"/><path d="M41.828 17.254a4.26 4.26 0 0 1-4.254-4.258 4.26 4.26 0 0 1 4.254-4.258 4.24 4.24 0 0 1 2.945 1.188c.051.051.074.102.074.176s-.023.121-.074.172l-3.34 3.34 2.625 2.625c.098.098.098.246 0 .348l-.051.047a4.18 4.18 0 0 1-2.18.621zm0-7.996c-2.078 0-3.758 1.684-3.734 3.762 0 2.078 1.684 3.762 3.762 3.738.566 0 1.137-.125 1.656-.398l-2.598-2.57c-.051-.051-.074-.102-.074-.176s.023-.121.074-.172l3.316-3.316c-.668-.57-1.512-.867-2.402-.867zm0 0" class="B"/><path d="M44.676 10.176l-.051-.051-3.539 3.488 2.797 2.797c.273-.172.547-.371.77-.594 1.582-1.559 1.582-4.082.023-5.641zm0 0" class="C"/><path d="M43.91 16.684c-.074 0-.125-.023-.176-.074l-2.82-2.82c-.051-.051-.074-.102-.074-.176s.023-.121.074-.172l3.516-3.516c.098-.098.246-.098.344 0l.074.051c1.66 1.66 1.66 4.332.027 6.012-.25.25-.52.473-.816.645-.074.027-.125.051-.148.051zm-2.477-3.07l2.5 2.5c.199-.125.395-.297.543-.445a3.77 3.77 0 0 0 .125-5.195zm0 0" class="B"/><path d="M39.504 16.336c-.594-.594-1.559-.594-2.152 0l-9.328 9.328 1.559 1.559 9.871-8.66c.645-.543.695-1.508.148-2.152-.047-.023-.074-.051-.098-.074zm0 0" class="C"/><path d="M29.555 27.473c-.074 0-.121-.023-.172-.074l-1.559-1.559c-.098-.102-.098-.25 0-.348l9.328-9.328a1.76 1.76 0 0 1 2.5 0c.691.691.691 1.805 0 2.5l-.074.074-9.875 8.66c-.023.051-.074.074-.148.074zm-1.187-1.809l1.215 1.215 9.699-8.512c.543-.445.594-1.262.148-1.809s-1.262-.594-1.805-.148c-.027.023-.051.051-.102.074zm0 0" class="B"/><path d="M20.871 36.281c-.102.051-.148.148-.125.246l.422 1.785c.098.246-.051.543-.324.617-.195.074-.418 0-.543-.148l-2.723-2.699 8.883-8.883 3.07.051 2.078 2.078c-.496.422-3.488 3.316-10.738 6.953zm0 0" class="C"/><path d="M20.672 39.176c-.199 0-.395-.074-.52-.223l-2.695-2.695c-.051-.051-.074-.102-.074-.176s.023-.121.074-.172l8.883-8.883a.25.25 0 0 1 .172-.074l3.07.047c.074 0 .121.027.172.074l2.078 2.082c.051.047.074.121.074.195a.19.19 0 0 1-.098.176l-.176.148c-2.621 2.301-6.184 4.602-10.613 6.805l.422 1.758c.074.32-.074.668-.375.84-.148.074-.27.098-.395.098zm-2.723-3.094l2.551 2.527c.074.121.223.172.344.098s.176-.223.102-.348l-.422-1.781a.45.45 0 0 1 .246-.52c4.383-2.203 7.922-4.48 10.52-6.73l-1.832-1.832-2.844-.047zm0 0" class="B"/><path d="M15.477 38.211l2.129-2.129 3.164 3.168-5.047-.344c-.223-.027-.371-.223-.348-.445 0-.102.027-.199.102-.25zm0 0" class="C"/><path d="M20.77 39.473l-5.07-.344c-.371-.027-.621-.348-.594-.719.023-.148.074-.297.195-.398l2.129-2.125c.102-.102.25-.102.348 0l3.168 3.168a.22.22 0 0 1 .047.27c-.051.098-.121.148-.223.148zm-3.164-3.043l-1.957 1.957a.14.14 0 0 0 0 .223c.023.023.051.047.102.047l4.379.297zm7.992-8.09c-.148 0-.25-.125-.25-.25 0-.074.027-.121.074-.172l2.402-2.402c.098-.098.246-.098.348 0l1.559 1.559c.074.074.098.148.074.25a.29.29 0 0 1-.199.172l-3.961.844h-.047zm2.398-2.305l-1.633 1.637 2.672-.57zm0 0" class="B"/><path d="M29.531 27.25l-2.723.594a.37.37 0 0 1-.445-.273.38.38 0 0 1 .098-.348l1.512-1.508zm0 0" class="C"/><path d="M26.762 28.09a.61.61 0 0 1-.621-.617c0-.176.074-.324.172-.445l1.512-1.512c.098-.098.246-.098.348 0l1.559 1.559a.24.24 0 0 1 .074.25.29.29 0 0 1-.199.172l-2.723.594h-.121zm1.234-2.055l-1.336 1.336c-.047.051-.047.102-.023.152s.074.074.148.074l2.277-.496zm16.703-13.484c-.047-.148-.223-.223-.371-.172s-.223.223-.172.371c0 .023.023.047.023.074.148.297.102.668-.098.938-.098.125-.074.297.023.398.125.098.297.074.398-.051.371-.469.445-1.062.195-1.559zm0 0" class="B"/><path d="M18.257 57.445v-3.848h-4.008v5.336h1.336v-1.488zm-1.336-1.215h-1.336v-1.41h1.336zm5.736 2.703v-5.336h-4.008v5.336zm-1.336-1.215h-1.336V54.82h1.336zm5.76 1.215V55.66h-2.672v-.84h2.672v-1.223h-4.008v3.238h2.672v.883h-2.672v1.215zm4.33-4.113v-1.223h-4.008v1.223h1.344v4.113h1.336V54.82zm5.576 4.113v-5.336h-5.336v1.223h.262v4.113h1.074V54.82h.664v4.113h1.336V54.82h.664v4.113zm4.422 0v-5.336h-4.008v5.336h1.336v-1.488h1.336v1.488zm-1.336-2.703h-1.336v-1.41h1.336zm5.674 2.703v-5.336h-4.008v1.223h.262v4.113h1.074V54.82h1.336v4.113zm0 0"/></svg>
